src/WeatherTwentyOne/Resources/Images/compass_needle.svg

<svg width="242" height="242" fill="none" xmlns="http://www.w3.org/2000/svg">
    <g clip-path="url(#prefix__clip0)">
        <path
            d="M139.834 240.611a1.58 1.58 0 01-2.238-.001l-16.782-16.794-16.794 16.782a1.584 1.584 0 01-2.605-1.662l17.925-49.238a1.584 1.584 0 012.977.001l17.889 49.251a1.585 1.585 0 01-.368 1.661h-.004zm-33.005-7.296l12.867-12.857a1.582 1.582 0 012.238.001l12.857 12.866-13.969-38.454-13.997 38.444h.004z"
            fill="#fff" />
    </g>
    <defs>
        <clipPath id="prefix__clip0">
            <path fill="#fff" d="M0 0h242v242H0z" />
        </clipPath>
    </defs>
</svg>

<svg width="242" height="242" viewBox="0 0 242 242" fill="none" xmlns="http://www.w3.org/2000/svg">
<g clip-path="url(#clip0)">
<path d="M139.834 240.611C139.537 240.907 139.134 241.074 138.715 241.074C138.295 241.074 137.892 240.907 137.596 240.61L120.814 223.816L104.02 240.598C103.765 240.852 103.431 241.011 103.073 241.05C102.715 241.089 102.355 241.004 102.051 240.811C101.748 240.617 101.519 240.326 101.404 239.985C101.288 239.644 101.292 239.274 101.415 238.936L119.34 189.698C119.451 189.392 119.653 189.127 119.919 188.94C120.186 188.753 120.503 188.653 120.829 188.653C121.154 188.654 121.472 188.754 121.738 188.941C122.004 189.128 122.207 189.393 122.317 189.699L140.206 238.95C140.309 239.233 140.329 239.54 140.264 239.834C140.199 240.128 140.051 240.397 139.838 240.611L139.834 240.611ZM106.829 233.315L119.696 220.458C119.993 220.161 120.395 219.994 120.815 219.995C121.235 219.995 121.637 220.162 121.934 220.459L134.791 233.325L120.822 194.871L106.825 233.315L106.829 233.315Z" fill="white"/>
</g>
<defs>
<clipPath id="clip0">
<rect width="242" height="242" fill="white"/>
</clipPath>
</defs>
</svg>
